Newaita/actions/32/format-text-direction-rtl.svg

<svg height="32" viewBox="0 0 32 32" width="32" xmlns="http://www.w3.org/2000/svg"><g fill="#424242"><path d="m21.167969 5.871094c-2.949219 0-5.511719 1.195312-6.882813 2.976562l2.203125 1.375c.835938-1.015625 2.441407-1.703125 4.296875-1.703125h.765625c2.71875 0 4.910157 1.476563 4.910157 3.308594v3.96875c-1.402344-.941406-3.253907-1.511719-5.292969-1.511719-4.398438 0-7.9375 2.65625-7.9375 5.957032v.660156h.046875c.4375 2.984375 3.792968 5.292968 7.890625 5.292968 2.039062 0 3.890625-.570312 5.292969-1.511718v1.367187h2.644531v-14.222656c0-3.300781-3.539063-5.957031-7.9375-5.957031zm-.382813 11.0625h.765625c2.71875 0 4.910157 1.472656 4.910157 3.308594 0 1.832031-2.191407 3.304687-4.910157 3.304687h-.765625c-2.71875 0-4.910156-1.472656-4.910156-3.304687 0-1.835938 2.191406-3.308594 4.910156-3.308594zm0 0"/><path d="m7.277344 26.050781v-2.648437h2.628906c.367188 0 .660156.296875.660156.664062v1.320313c0 .367187-.292968.664062-.660156.664062zm0 0"/><path d="m9.261719 20.09375v9.261719l-6.617188-4.628907zm0 0"/></g></svg>

<svg xmlns="http://www.w3.org/2000/svg" xmlns:xlink="http://www.w3.org/1999/xlink" width="32px" height="32px" viewBox="0 0 32 32" version="1.1">
<g id="surface1">
     <defs>
  <style id="current-color-scheme" type="text/css">
   .ColorScheme-Text { color:#424242; } .ColorScheme-Highlight { color:#eeeeee; }
  </style>
 </defs>
<path style="fill:currentColor" class="ColorScheme-Text" d="M 21.167969 5.871094 C 18.21875 5.871094 15.65625 7.066406 14.285156 8.847656 L 16.488281 10.222656 C 17.324219 9.207031 18.929688 8.519531 20.785156 8.519531 L 21.550781 8.519531 C 24.269531 8.519531 26.460938 9.996094 26.460938 11.828125 L 26.460938 15.796875 C 25.058594 14.855469 23.207031 14.285156 21.167969 14.285156 C 16.769531 14.285156 13.230469 16.941406 13.230469 20.242188 L 13.230469 20.902344 L 13.277344 20.902344 C 13.714844 23.886719 17.070312 26.195312 21.167969 26.195312 C 23.207031 26.195312 25.058594 25.625 26.460938 24.683594 L 26.460938 26.050781 L 29.105469 26.050781 L 29.105469 11.828125 C 29.105469 8.527344 25.566406 5.871094 21.167969 5.871094 Z M 20.785156 16.933594 L 21.550781 16.933594 C 24.269531 16.933594 26.460938 18.40625 26.460938 20.242188 C 26.460938 22.074219 24.269531 23.546875 21.550781 23.546875 L 20.785156 23.546875 C 18.066406 23.546875 15.875 22.074219 15.875 20.242188 C 15.875 18.40625 18.066406 16.933594 20.785156 16.933594 Z M 20.785156 16.933594 "/>
     <defs>
  <style id="current-color-scheme" type="text/css">
   .ColorScheme-Text { color:#424242; } .ColorScheme-Highlight { color:#eeeeee; }
  </style>
 </defs>
<path style="fill:currentColor" class="ColorScheme-Text" d="M 7.277344 26.050781 L 7.277344 23.402344 L 9.90625 23.402344 C 10.273438 23.402344 10.566406 23.699219 10.566406 24.066406 L 10.566406 25.386719 C 10.566406 25.753906 10.273438 26.050781 9.90625 26.050781 Z M 7.277344 26.050781 "/>
     <defs>
  <style id="current-color-scheme" type="text/css">
   .ColorScheme-Text { color:#424242; } .ColorScheme-Highlight { color:#eeeeee; }
  </style>
 </defs>
<path style="fill:currentColor" class="ColorScheme-Text" d="M 9.261719 20.09375 L 9.261719 29.355469 L 2.644531 24.726562 Z M 9.261719 20.09375 "/>
</g>
</svg>
